X:1
T:Title
%%score { ( 1 3 ) | ( 2 4 ) }
L:1/8
M:4/4
K:Eb
V:1 treble nm="Grand Piano"
V:3 treble 
V:2 bass 
V:4 bass 
V:1
 z4 z2[Q:1/4=86] GF | E>F G[FA] [GB]<G FE |[M:3/4] A>G Ac [GB]2 |[M:1/4] [EG][FA] | %4
[M:4/4] [GB]>[_G=A] [=GB][_Ac] [GB]<[B,EG] [A,EF][G,E] | %5
[M:7/8] [=A,EG][A,EF][A,EF]>[A,EG] [B,DF]3 |[M:1/4] [B,EG][A,DF] | %7
[M:4/4] [G,E]>[A,EF] [B,EG][B,FA] [EGB]<[B,EG] [A,EF][G,E] |[M:7/8] [A,EA][A,EA][EB] [EB] [Ec]3 | %9
[M:1/4] [Ed][Ec] |[M:4/4] [EB]>[E=A] [EB][Ec] [EB]<[B,EG] [=A,E][A,EF] | %11
[M:7/8] [B,EG]>[CFA][B,EG] [A,DF] [G,E]3 |[M:1/4] [B,EG][B,FA] | %13
[M:4/4] [GB]>[_G=A] [=GB][_Ac] [GB]2 [B,EG][EGB] | [EAc]>[DA=B] [EAc][EAe] [EG_B]2 [B,EG][B,FA] | %15
 [GB]>[_G=A] [=GB][_Ac] [GB]GFE |[M:9/8] [EG][EF][EF] [EG] [DF]2- [DF][EG][FA] | %17
[M:4/4] [GB]>[_G=A] [=GB][_Ac] [GB]2 [EG][GB] |[M:9/8] c>=Bc d e2- edc | %19
[M:4/4] B>=A Bc BG[B,E][CEF] |[M:15/8] [B,EG]>[CFA][B,EG][A,DF] [G,E]2- [G,E] z2 z6 | %21
[M:2/2][Q:1/4=120] [EB]8 | [FA]4 F4 | [G,E]4 [B,DF]4 | [B,EG]6 [B,GB]2 | [Ge]3 [Bd] [Ac]2 [GB]2 | %26
 [GB]4 [EG]2 [GB]2 | [FA]3 G [B,FA]2 [A,DF]2 | [G,E]8 |] %29
V:2
 z4 z2 [E,B,E][E,A,E] | [E,G,]>[E,A,E] [E,B,E][E,B,] [E,E]<[E,B,E] [F,B,D][G,B,] | %2
[M:3/4][K:treble] [A,CE]>[A,=B,E] [A,CE][A,EA][K:bass] [E,E]2 |[M:1/4] [E,B,][E,B,] | %4
[M:4/4] [E,E]>[E,E] [E,E][E,E] [E,E]<E, E,E, |[M:7/8] C,C,F,>F, B,,3 |[M:1/4] B,,B,, | %7
[M:4/4] E,>E, E,E, E,<E, E,_D, |[M:7/8] C,C,[B,,G,] [B,,G,] [A,,A,]3 |[M:1/4] [=A,,_G,][A,,G,] | %10
[M:4/4] [B,,G,]>[B,,_G,] [B,,=G,][B,,A,] [B,,G,]<E, C,=B,, |[M:7/8] B,,>B,,B,, B,, E,3 | %12
[M:1/4] E,E, |[M:4/4] [E,E]>[E,E] [E,E][E,E] [E,E]2 E,E, | A,,>A,, A,,C, E,2 E,E, | %15
 [E,E]>[E,E] [E,E][E,E] [E,E][E,B,E][E,A,E][E,G,] | %16
[M:9/8] [C,=A,][C,A,][F,A,] [F,A,] [B,,B,]2- [B,,B,][E,B,][E,B,] | %17
[M:4/4] [E,E]>[E,E] [E,E][E,E] [E,E]2 [E,B,][E,E] | %18
[M:9/8][K:treble] [A,EA]>[A,DA][A,EA] [A,DA] [A,CA]2- [A,CA][=A,E_G][A,EG] | %19
[M:4/4] [B,EG]>[B,E_G] [B,E=G][B,DA] [B,EG][K:bass][E,B,E]G,,A,, | %20
[M:15/8] B,,>B,,B,,B,, E,2- E, z2 z6 |[M:2/2] [E,G,]8 | z4 D4 | C,4 B,,4 | E,6 E,2 | %25
 [E,B,]4 [E,E]2 [E,E]2 | [E,E]4 [E,B,]2 [E,B,]2 | z2 z E B,,2 B,,2 | E,8 |] %29
V:3
 x8 | x8 |[M:3/4] x6 |[M:1/4] x2 |[M:4/4] x8 |[M:7/8] x7 |[M:1/4] x2 |[M:4/4] x8 |[M:7/8] x7 | %9
[M:1/4] x2 |[M:4/4] x8 |[M:7/8] x7 |[M:1/4] x2 |[M:4/4] x8 | x8 | x8 |[M:9/8] x9 |[M:4/4] x8 | %18
[M:9/8] x9 |[M:4/4] x8 |[M:15/8] x15 |[M:2/2] x8 | B,8 | x8 | x8 | x8 | x8 | x8 | x8 |] %29
V:4
 x8 | x8 |[M:3/4][K:treble] x4[K:bass] x2 |[M:1/4] x2 |[M:4/4] x8 |[M:7/8] x7 |[M:1/4] x2 | %7
[M:4/4] x8 |[M:7/8] x7 |[M:1/4] x2 |[M:4/4] x8 |[M:7/8] x7 |[M:1/4] x2 |[M:4/4] x8 | x8 | x8 | %16
[M:9/8] x9 |[M:4/4] x8 |[M:9/8][K:treble] x9 |[M:4/4] x5[K:bass] x3 |[M:15/8] x15 |[M:2/2] x8 | %22
 B,,8 | x8 | x8 | x8 | x8 | [B,,B,]4 z4 | x8 |] %29

